svgs/call_of_duty.svg

<svg width="24" height="24" viewBox="0 0 24 24" fill="none" xmlns="http://www.w3.org/2000/svg">
<path fill-rule="evenodd" clip-rule="evenodd" d="M4.89084 19.6143L3 18.3025V5.65813L4.97151 4.38572L7.86876 6.05474C7.86876 9.95358 7.8678 13.8486 7.8678 17.7455L4.89084 19.6143ZM15.0653 6.66933L12 8.43534L8.9347 6.66933V14.4277L11.951 15.9526L12 15.9766L12.049 15.9526L15.0653 14.4277V6.66933ZM19.1092 19.6143L21 18.3025V5.65813L19.0285 4.38572L16.1312 6.05474C16.1312 9.95358 16.1322 13.8486 16.1322 17.7455L19.1092 19.6143Z" fill="black"/>
</svg>

<svg xmlns="http://www.w3.org/2000/svg" width="24" height="24" fill="none" viewBox="0 0 24 24"><path fill="#000" fill-rule="evenodd" d="M4.89 19.614 3 18.302V5.658l1.972-1.272 2.897 1.669-.001 11.69-2.977 1.87M15.066 6.67 12 8.435 8.935 6.67v7.759l3.016 1.525.049.024.049-.024 3.016-1.525v-7.76m4.044 12.945L21 18.302V5.658l-1.971-1.272-2.898 1.669.001 11.69 2.977 1.87" clip-rule="evenodd"/></svg>
